docs/img/type/type-card-star.svg

<svg width="126" height="160" viewBox="0 0 126 160" fill="none" xmlns="http://www.w3.org/2000/svg">
<mask id="mask0_207_3" style="mask-type:alpha" maskUnits="userSpaceOnUse" x="0" y="0" width="126" height="160">
<path d="M0 5C0 2.23858 2.23858 0 5 0H121C123.761 0 126 2.23858 126 5V160H0V5Z" fill="white"/>
</mask>
<g mask="url(#mask0_207_3)">
<path d="M110.556 -26.1327L135.712 3.99692C138.497 7.33232 142.227 9.74567 146.411 10.9189L178.562 19.9347C191.876 23.6682 194.893 41.1816 183.595 49.1549L158.594 66.8007C154.579 69.6346 151.655 73.7585 150.311 78.4856L139.37 116.961C135.134 131.856 115.565 135.266 106.541 122.681L84.9345 92.5492C81.7529 88.1121 77.0023 85.0518 71.6468 83.9891L45.2957 78.7605C29.5768 75.6415 24.9884 55.3726 37.8315 45.7879L61.4952 28.1278C65.4357 25.187 68.2492 20.9845 69.4666 16.2207L78.4311 -18.8566C82.1667 -33.4736 100.887 -37.7136 110.556 -26.1327Z" stroke="#FAED00" stroke-opacity="0.6" stroke-width="3"/>
<path d="M106.064 -1.61704L125.887 22.1252C127.377 23.9092 129.372 25.2001 131.61 25.8276L155.524 32.5338C162.418 34.4668 163.98 43.5344 158.131 47.6626L139.189 61.0313C137.041 62.5471 135.478 64.7529 134.759 67.2814L126.051 97.9029C124.105 104.747 115.114 106.313 110.967 100.531L93.4295 76.0734C91.7277 73.7001 89.1866 72.0631 86.3221 71.4947L62.6888 66.8054C55.4667 65.3723 53.3585 56.0596 59.2594 51.6558L79.8313 36.3031C81.939 34.7301 83.4439 32.4822 84.0951 29.9342L91.3041 1.72603C93.0204 -4.98991 101.622 -6.93801 106.064 -1.61704Z" stroke="#FAED00" stroke-opacity="0.8" stroke-width="3"/>
<path d="M105.092 -53.2262L143.911 -6.73242C146.695 -3.39701 150.426 -0.983674 154.609 0.189545L201.303 13.2834C216.306 17.4906 219.706 37.226 206.975 46.2109L170.031 72.2853C166.016 75.1192 163.093 79.243 161.749 83.9701L144.703 143.914C140.467 158.809 120.898 162.219 111.874 149.634L77.5671 101.791C74.3854 97.3535 69.6348 94.2931 64.2793 93.2305L18.2067 84.0886C2.48779 80.9697 -2.10058 60.7008 10.7425 51.1161L50.8886 21.1552C54.8291 18.2145 57.6426 14.0119 58.86 9.24818L72.9667 -45.9502C76.7023 -60.5672 95.4224 -64.8072 105.092 -53.2262Z" stroke="#FAED00" stroke-opacity="0.2" stroke-width="3"/>
</g>
</svg>

<svg width="126" height="160" fill="none" xmlns="http://www.w3.org/2000/svg"><mask id="a" style="mask-type:alpha" maskUnits="userSpaceOnUse" x="0" y="0" width="126" height="160"><path d="M0 5a5 5 0 015-5h116a5 5 0 015 5v155H0V5z" fill="#fff"/></mask><g mask="url(#a)" stroke="#FAED00" stroke-width="3"><path d="M110.556-26.133l25.156 30.13a21.5 21.5 0 0010.699 6.922l32.151 9.016c13.314 3.733 16.331 21.247 5.033 29.22L158.594 66.8a21.5 21.5 0 00-8.283 11.685L139.37 116.96c-4.236 14.895-23.805 18.305-32.829 5.72L84.935 92.549a21.5 21.5 0 00-13.288-8.56L45.296 78.76c-15.72-3.119-20.308-23.387-7.465-32.972l23.664-17.66a21.5 21.5 0 007.972-11.907l8.964-35.078c3.736-14.617 22.456-18.857 32.125-7.276z" stroke-opacity=".6"/><path d="M106.064-1.617l19.823 23.742a11.502 11.502 0 005.723 3.703l23.914 6.706c6.894 1.933 8.456 11 2.607 15.129L139.189 61.03a11.498 11.498 0 00-4.43 6.25l-8.708 30.622c-1.946 6.844-10.937 8.41-15.084 2.628L93.43 76.073a11.5 11.5 0 00-7.108-4.578l-23.633-4.69c-7.222-1.433-9.33-10.745-3.43-15.15l20.572-15.352a11.5 11.5 0 004.264-6.369l7.21-28.208c1.715-6.716 10.317-8.664 14.759-3.343z" stroke-opacity=".8"/><path d="M105.092-53.226l38.819 46.494A21.498 21.498 0 00154.609.19l46.694 13.093c15.003 4.208 18.403 23.943 5.672 32.928l-36.944 26.074a21.499 21.499 0 00-8.282 11.685l-17.046 59.944c-4.236 14.895-23.805 18.305-32.829 5.72l-34.307-47.843a21.499 21.499 0 00-13.288-8.56l-46.072-9.142C2.487 80.969-2.101 60.7 10.742 51.116l40.147-29.96A21.5 21.5 0 0058.86 9.247L72.967-45.95c3.735-14.617 22.455-18.857 32.125-7.276z" stroke-opacity=".2"/></g></svg>
